!!! OTL: Literature95
!!! Chapter: 5
!!! Section: III
!!! Page: 366
!!! Mode: 
!!! Encoder: DJB
**kern
*staff1
*I"Piano
=1-
*clefG2
*k[f#c#g#d#a#]
*B:
*M4/4
2d#/
4c#/
4d#/
=2
4B/
4e/
2c#/
=3
4f#/
4f#/
4g#/
4a#/
=4
4b\
4d#/
2c#/
=5
4f#/
4ee\
8.dd#\L
16b\Jk
8f#/L
8f#/J
=6
4f#/
4ee\
8.dd#\L
16b\Jk
8f#/L
8f#/J
=7
4f#/
4f##/
4g#/
4r
=8
4g#/
4a#/
4b\
4r
=9
4b\
4cc#\
4dd#\
8g#/L
8b/J
=10
!!linebreak:original
4b\
4a#/
4b\
4r
=11
4b\
4cc#\
4dd#\
8g#/L
8b/J
=12
4b\
4r
4a#/
4r
=13
4b\
4r
2r
==
*-
